svgs/solid/soap.svg

<svg xmlns="http://www.w3.org/2000/svg" viewBox="0 0 512 512"><!-- Font Awesome Pro 6.0.0-alpha2 by @fontawesome - https://fontawesome.com License - https://fontawesome.com/license (Commercial License) --><path d="M320 256C355.346 256 384 227.346 384 192C384 156.652 355.346 128 320 128S256 156.652 256 192C256 227.346 284.654 256 320 256ZM160 288C124.654 288 96 316.652 96 352C96 387.346 124.654 416 160 416H352C387.346 416 416 387.346 416 352C416 316.652 387.346 288 352 288H160ZM384 64C401.674 64 416 49.672 416 32C416 14.326 401.674 0 384 0S352 14.326 352 32C352 49.672 366.326 64 384 64ZM208 96C234.51 96 256 74.51 256 48S234.51 0 208 0S160 21.49 160 48S181.49 96 208 96ZM416 192C416 219.824 403.977 244.676 385.062 262.209C421.719 275.721 448 310.652 448 352C448 405.02 405.02 448 352 448H160C106.98 448 64 405.02 64 352S106.98 256 160 256H248.914C233.59 238.988 224 216.699 224 192H96C42.98 192 0 234.98 0 288V416C0 469.02 42.98 512 96 512H416C469.02 512 512 469.02 512 416V288C512 234.98 469.02 192 416 192Z"/></svg>

<svg xmlns="http://www.w3.org/2000/svg" viewBox="0 0 512 512"><!--! Font Awesome Pro 6.3.0 by @fontawesome - https://fontawesome.com License - https://fontawesome.com/license (Commercial License) Copyright 2023 Fonticons, Inc. --><path d="M208 96a48 48 0 1 0 0-96 48 48 0 1 0 0 96zM320 256a64 64 0 1 0 0-128 64 64 0 1 0 0 128zM416 32a32 32 0 1 0 -64 0 32 32 0 1 0 64 0zm0 160c0 27.6-11.7 52.5-30.4 70.1C422.1 275.7 448 310.8 448 352c0 53-43 96-96 96H160c-53 0-96-43-96-96s43-96 96-96h88.4c-15.2-17-24.4-39.4-24.4-64H96c-53 0-96 43-96 96V416c0 53 43 96 96 96H416c53 0 96-43 96-96V288c0-53-43-96-96-96zM160 288c-35.3 0-64 28.7-64 64s28.7 64 64 64H352c35.3 0 64-28.7 64-64s-28.7-64-64-64H320 160z"/></svg>
